Papirus-GTK/24x24/apps/gpodder.svg

<svg height="24" width="24" xmlns="http://www.w3.org/2000/svg"><path d="m11.347506 3.9958273c-.349779.01336-.657111.1976576-.8984.4707201-.241288.2730625-.431887.6367362-.5924235 1.0635839-.3210712.8536934-.5184603 1.9668769-.6277638 3.118404-.1093041 1.151526-.1280036 2.3389677-.078122 3.3316837.04988.992716.1472961 1.765337.3534082 2.196694.1802701.377277.3897062.808501.4798907 1.197941.090184.38944.07132.699808-.1599636.950836-.2312841.251028-.7415273.476804-1.7223993.528973-.9808715.05217-2.4142076-.0656-4.4464307-.440654-.327325-.06041-.6004016-.06581-.837949.01222-.2375474.07802-.4235123.251558-.5366222.47072-.22622.438325-.2465556 1.041265-.2799364 1.874425-.010793.269403.088972.526223.264126.736616.1751544.210394.4203967.382862.7244865.533671.6081796.301619 1.4598869.519056 2.5175671.673666 2.115361.309219 5.052335.357953 8.38879.166302l.0028-.00095.0037 0c1.227929-.100281 3.170372-.170624 4.84541-.592863.83752-.21112 1.611951-.508527 2.20322-.963051.59127-.454523.99618-1.085561 1.036044-1.890397.03706-.748264-.0019-1.249415-.153453-1.609469-.151547-.360053-.476313-.552123-.810049-.559039-.667472-.01383-1.453955.419181-2.474786.656753-1.171448.272626-1.997912.360801-2.560349.318512-.562436-.04229-.843589-.200119-1.017443-.421862-.173853-.221746-.251974-.549765-.288306-.966809-.03633-.417045-.03209-.91087-.08742-1.430953-.10609-.997078-.306311-3.331159-.759819-5.415626-.226754-1.042234-.514919-2.022895-.90119-2.7604313-.193136-.3687685-.410628-.6789117-.671476-.9029184-.260847-.2240065-.574862-.3596955-.915141-.346698z" fill="#7f5785" overflow="visible"/><path d="m11.620128 3.0057118c-.207044.00335-.416616.016789-.626953.040039-3.2966921.3644159-5.6981047 3.0838458-5.4716821 6.1201202l-.7714849.0859376.4414062 3.9931654 2.5732438-.284179-.4414068-3.9941431-.9531254.1054691c-.1766481-2.6017983 1.8855794-4.9247766 4.7128932-5.2373073 2.825423-.3123218 5.356765 1.4995175 5.755862 4.0742207l-.838868.0927736.441407 3.993166 2.484376-.274414-.441406-3.9931662-.797852.0878906c-.420959-2.8135594-3.033162-4.858552-6.06641-4.8095726z" fill="#4d4d4d" overflow="visible"/><path d="m9.1289161 10.755715c-.00235.4266.0023.842549.021485 1.22461.04988.992716.1474041 1.764933.3535157 2.19629.1802706.377277.3902847.808804.4804692 1.198244.00858.03705.01106.06983.01758.105468.04318-.178149.03538-.376783-.01758-.605469-.090185-.389439-.3001986-.820967-.4804692-1.198243-.2061116-.431358-.3036357-1.203574-.3535157-2.19629-.011625-.231339-.01759-.47504-.021485-.72461zm12.8632879 5.985355c-.0021.06578-.0014.123341-.0049.193359-.03987.804837-.444864 1.436103-1.036133 1.890626-.59127.454524-1.365607.751771-2.203126.962892-1.675038.422238-3.617777.492492-4.845706.592773l-.0039 0-.003.001c-3.336374.191627-6.2732336.14318-8.3885946-.166039-1.0576803-.15461-1.9093998-.372209-2.5175794-.673828-.3040899-.15081-.5494554-.323787-.7246097-.53418-.1302669-.156475-.2185775-.338315-.2509767-.532227-.00427.09843-.00846.190186-.012695.295898-.010793.269403.088518.525936.263672.736329.1751544.210394.4205199.383371.7246097.53418.6081796.301619 1.4598992.519219 2.5175796.673828 2.115361.309219 5.0522211.357666 8.3886761.166016l.003-.001.0039 0c1.227928-.100281 3.170667-.170534 4.845705-.592773.837519-.211121 1.611856-.508367 2.203126-.962892.591269-.454523.996269-1.085789 1.036133-1.890625.01304-.263323.01226-.486623.0049-.69336z" opacity=".3" overflow="visible"/><path d="m11.347667 3.9959466c-.349778.01336-.657149.1976409-.898437.4707034-.241289.2730625-.432238.6366291-.592774 1.0634768-.3210712.8536934-.5186268 1.9666389-.6279303 3.118166-.083832.8831779-.1124341 1.7860452-.09961 2.6074232.0038-.68184.032375-1.3990791.09961-2.107423.1093035-1.151527.3068591-2.2644726.6279303-3.118166.160536-.4268477.351485-.7904144.592774-1.0634768.241288-.2730625.548659-.4573434.898437-.4707034.340279-.012997.654193.1226733.91504.3466799.260848.2240064.478739.533576.671875.9023442.386272.7375363.673638 1.7185093.900391 2.7607433.453508 2.0844678.653678 4.4189448.759766 5.4160188.05533.520083.05156 1.01362.08789 1.430665.03633.417044.114233.745051.288086.966797.173853.221743.455143.379585 1.017578.421875.562438.04229 1.389101-.04574 2.560549-.318359 1.020831-.237573 1.807138-.671057 2.47461-.657227.333736.0069.658025.199516.809571.55957.09822.233347.145587.535283.15918.916016.02041-.637168-.02181-1.089654-.15918-1.416016-.151546-.360054-.475835-.552655-.809571-.559571-.667472-.01383-1.453779.419655-2.47461.657227-1.171448.272626-1.998111.360648-2.560549.31836-.562434-.04229-.843724-.200132-1.017577-.421875-.173853-.221746-.251755-.549753-.288086-.966798-.03633-.417044-.032559-.910582-.087891-1.430664-.106088-.997074-.306258-3.331552-.759766-5.416019-.226753-1.042234-.514119-2.023207-.900391-2.7607434-.193136-.3687684-.411027-.6783375-.671875-.9023441-.260847-.2240066-.574761-.3596774-.91504-.3466799zm-1.345703 11.9843804c-.03035.12523-.082264.242083-.1777346.345703-.2312846.251029-.7417853.476152-1.7226573.528321-.9808715.05217-2.4140681-.06538-4.4462912-.440429-.327325-.06041-.6003436-.06533-.837891.0127-.2375474.07802-.4239997.251541-.5371096.470703-.22622.438325-.2459163 1.040864-.2792971 1.874024-.00276.06904.00153.137283.012695.204102.029333-.677362.069085-1.195416.2666017-1.578126.1131099-.219162.2995623-.39268.5371096-.470703.2375474-.07803.5105661-.0731.8378911-.0127 2.0322229.375053 3.4654195.492599 4.446291.440429.980872-.05217 1.4913727-.277292 1.7226573-.52832.2092801-.227145.2397161-.506768.1777351-.845704z" fill="#fff" opacity=".2" overflow="visible"/><path d="m11.490584 11.096278a2.2427266 4.0015282 3.1087108 1 1 -4.4810781-.201112 2.2427266 4.0015282 3.1087108 1 1  4.4810781.201112z" fill="#fff"/><path d="m10.995272 12.024402a.96344861 1.0352156 44.98091 0 1 -1.9907396-.04797.96344861 1.0352156 44.98091 0 1  1.9907396.04797z" fill="#4d4d4d" overflow="visible"/><path d="m16.954844 10.783096a4.0233545 2.4620904 82.181515 0 1 -4.909982.422518 4.0233545 2.4620904 82.181515 0 1  4.909982-.422518z" fill="#fff"/><path d="m14.96503 12.066996a.89638798 1.0937843 44.990916 1 1 -1.929792-.135486.89638798 1.0937843 44.990916 0 1  1.929792.135486z" fill="#4d4d4d" overflow="visible"/><path d="m11.620128 3.0057118c-.207044.00335-.416616.016789-.626953.040039-3.2369111.3578077-5.6039117 2.9867827-5.4746121 5.9560577.1399755-2.7593014 2.4206156-5.1184691 5.4746121-5.4560575.210337-.023251.419909-.036694.626953-.040039 3.033248-.048979 5.645451 1.9960133 6.06641 4.8095726l.797852-.087891.386719 3.4990244.05469-.0059-.441406-3.9931652-.797852.087891c-.420962-2.8135188-3.033165-4.8585114-6.066413-4.809532zm5.114261 4.9150411l-.734376.081055.05469.4941407.78418-.086914c-.025752-.1661365-.06148-.3288636-.104494-.4882817zm-9.4111378 1.045899l-.9531254.1054691c-.0012-.017375.000004-.034405-.001-.051758-.00967.182222-.01163.3660661.001.5517582l.9531254-.105469.3867192 3.5000018.0546876-.00586-.4414068-3.9941431zm-1.8125008.2001956l-.7607424.0849611.0546875.4941407.7167974-.080078c-.01249-.1674831-.013955-.3338112-.010745-.4990238z" fill="#fff" opacity=".2" overflow="visible"/></svg>

<?xml version="1.0" encoding="UTF-8" standalone="no"?>
<!-- Created with Inkscape (http://www.inkscape.org/) -->

<svg
   xmlns:dc="http://purl.org/dc/elements/1.1/"
   xmlns:cc="http://creativecommons.org/ns#"
   xmlns:rdf="http://www.w3.org/1999/02/22-rdf-syntax-ns#"
   xmlns:svg="http://www.w3.org/2000/svg"
   xmlns="http://www.w3.org/2000/svg"
   xmlns:sodipodi="http://sodipodi.sourceforge.net/DTD/sodipodi-0.dtd"
   xmlns:inkscape="http://www.inkscape.org/namespaces/inkscape"
   version="1.0"
   width="24"
   height="24"
   id="svg4380"
   inkscape:version="0.91 r13725"
   sodipodi:docname="gpodder.svg">
  <sodipodi:namedview
     pagecolor="#7f7f7f"
     bordercolor="#666666"
     borderopacity="1"
     objecttolerance="10"
     gridtolerance="10"
     guidetolerance="10"
     inkscape:pageopacity="0"
     inkscape:pageshadow="2"
     inkscape:window-width="1600"
     inkscape:window-height="847"
     id="namedview274"
     showgrid="false"
     inkscape:zoom="19.88"
     inkscape:cx="24"
     inkscape:cy="14.479715"
     inkscape:window-x="0"
     inkscape:window-y="0"
     inkscape:window-maximized="1"
     inkscape:current-layer="svg4380" />
  <metadata
     id="metadata281">
    <rdf:RDF>
      <cc:Work
         rdf:about="">
        <dc:format>image/svg+xml</dc:format>
        <dc:type
           rdf:resource="http://purl.org/dc/dcmitype/StillImage" />
        <dc:title></dc:title>
      </cc:Work>
    </rdf:RDF>
  </metadata>
  <defs
     id="defs4382" />
  <g
     id="g4594">
    <path
       id="path4402"
       d="m 11.347506,3.9958273 c -0.349779,0.01336 -0.657111,0.1976576 -0.8984,0.4707201 -0.241288,0.2730625 -0.431887,0.6367362 -0.5924235,1.0635839 -0.3210712,0.8536934 -0.5184603,1.9668769 -0.6277638,3.118404 -0.1093041,1.151526 -0.1280036,2.3389677 -0.078122,3.3316837 0.04988,0.992716 0.1472961,1.765337 0.3534082,2.196694 0.1802701,0.377277 0.3897062,0.808501 0.4798907,1.197941 0.090184,0.38944 0.07132,0.699808 -0.1599636,0.950836 -0.2312841,0.251028 -0.7415273,0.476804 -1.7223993,0.528973 -0.9808715,0.05217 -2.4142076,-0.0656 -4.4464307,-0.440654 -0.327325,-0.06041 -0.6004016,-0.06581 -0.837949,0.01222 -0.2375474,0.07802 -0.4235123,0.251558 -0.5366222,0.47072 -0.22622,0.438325 -0.2465556,1.041265 -0.2799364,1.874425 -0.010793,0.269403 0.088972,0.526223 0.264126,0.736616 0.1751544,0.210394 0.4203967,0.382862 0.7244865,0.533671 0.6081796,0.301619 1.4598869,0.519056 2.5175671,0.673666 2.115361,0.309219 5.052335,0.357953 8.38879,0.166302 l 0.0028,-9.5e-4 0.0037,0 c 1.227929,-0.100281 3.170372,-0.170624 4.84541,-0.592863 0.83752,-0.21112 1.611951,-0.508527 2.20322,-0.963051 0.59127,-0.454523 0.99618,-1.085561 1.036044,-1.890397 0.03706,-0.748264 -0.0019,-1.249415 -0.153453,-1.609469 -0.151547,-0.360053 -0.476313,-0.552123 -0.810049,-0.559039 -0.667472,-0.01383 -1.453955,0.419181 -2.474786,0.656753 -1.171448,0.272626 -1.997912,0.360801 -2.560349,0.318512 -0.562436,-0.04229 -0.843589,-0.200119 -1.017443,-0.421862 -0.173853,-0.221746 -0.251974,-0.549765 -0.288306,-0.966809 -0.03633,-0.417045 -0.03209,-0.91087 -0.08742,-1.430953 C 14.489042,12.424423 14.288821,10.090342 13.835313,8.005875 13.608559,6.963641 13.320394,5.98298 12.934123,5.2454437 12.740987,4.8766752 12.523495,4.566532 12.262647,4.3425253 12.0018,4.1185188 11.687785,3.9828298 11.347506,3.9958273 Z"
       style="color:#000000;display:inline;overflow:visible;visibility:visible;fill:#7f5785;fill-opacity:1;fill-rule:nonzero;stroke:none;stroke-width:0.99999994;stroke-linecap:butt;stroke-linejoin:miter;stroke-miterlimit:4;stroke-dasharray:none;stroke-dashoffset:0;stroke-opacity:1;marker:none;enable-background:accumulate"
       inkscape:connector-curvature="0" />
    <path
       id="path4113"
       d="m 11.620128,3.0057118 c -0.207044,0.00335 -0.416616,0.016789 -0.626953,0.040039 C 7.6964829,3.4101667 5.2950703,6.1295966 5.5214929,9.165871 L 4.750008,9.2518086 5.1914142,13.244974 7.764658,12.960795 7.3232512,8.9666519 6.3701258,9.072121 C 6.1934777,6.4703227 8.2557052,4.1473444 11.083019,3.8348137 13.908442,3.5224919 16.439784,5.3343312 16.838881,7.9090344 L 16.000013,8.001808 16.44142,11.994974 18.925796,11.72056 18.48439,7.7273938 17.686538,7.8152844 C 17.265579,5.001725 14.653376,2.9567324 11.620128,3.0057118 Z"
       style="color:#000000;display:inline;overflow:visible;visibility:visible;fill:#4d4d4d;fill-opacity:1;fill-rule:nonzero;stroke:none;stroke-width:1;marker:none;enable-background:accumulate"
       inkscape:connector-curvature="0" />
    <path
       id="path4432"
       d="m 9.1289161,10.755715 c -0.00235,0.4266 0.0023,0.842549 0.021485,1.22461 0.04988,0.992716 0.1474041,1.764933 0.3535157,2.19629 0.1802706,0.377277 0.3902847,0.808804 0.4804692,1.198244 0.00858,0.03705 0.01106,0.06983 0.01758,0.105468 0.04318,-0.178149 0.03538,-0.376783 -0.01758,-0.605469 C 9.894201,14.485419 9.6841874,14.053891 9.5039168,13.676615 9.2978052,13.245257 9.2002811,12.473041 9.1504011,11.480325 c -0.011625,-0.231339 -0.01759,-0.47504 -0.021485,-0.72461 z M 21.992204,16.74107 c -0.0021,0.06578 -0.0014,0.123341 -0.0049,0.193359 -0.03987,0.804837 -0.444864,1.436103 -1.036133,1.890626 -0.59127,0.454524 -1.365607,0.751771 -2.203126,0.962892 -1.675038,0.422238 -3.617777,0.492492 -4.845706,0.592773 l -0.0039,0 -0.003,0.001 C 10.559065,20.573347 7.6222054,20.5249 5.5068444,20.215681 4.4491641,20.061071 3.5974446,19.843472 2.989265,19.541853 2.6851751,19.391043 2.4398096,19.218066 2.2646553,19.007673 2.1343884,18.851198 2.0460778,18.669358 2.0136786,18.475446 c -0.00427,0.09843 -0.00846,0.190186 -0.012695,0.295898 -0.010793,0.269403 0.088518,0.525936 0.263672,0.736329 0.1751544,0.210394 0.4205199,0.383371 0.7246097,0.53418 0.6081796,0.301619 1.4598992,0.519219 2.5175796,0.673828 2.115361,0.309219 5.0522211,0.357666 8.3886761,0.166016 l 0.003,-10e-4 0.0039,0 c 1.227928,-0.100281 3.170667,-0.170534 4.845705,-0.592773 0.837519,-0.211121 1.611856,-0.508367 2.203126,-0.962892 0.591269,-0.454523 0.996269,-1.085789 1.036133,-1.890625 0.01304,-0.263323 0.01226,-0.486623 0.0049,-0.69336 z"
       style="color:#000000;display:inline;overflow:visible;visibility:visible;opacity:0.3;fill:#000000;fill-opacity:1;fill-rule:nonzero;stroke:none;stroke-width:0.99999994;stroke-linecap:butt;stroke-linejoin:miter;stroke-miterlimit:4;stroke-dasharray:none;stroke-dashoffset:0;stroke-opacity:1;marker:none;enable-background:accumulate"
       inkscape:connector-curvature="0" />
    <path
       id="path4427"
       d="M 11.347667,3.9959466 C 10.997889,4.0093066 10.690518,4.1935875 10.44923,4.46665 10.207941,4.7397125 10.016992,5.1032791 9.856456,5.5301268 9.5353848,6.3838202 9.3378292,7.4967657 9.2285257,8.6482928 c -0.083832,0.8831779 -0.1124341,1.7860452 -0.09961,2.6074232 0.0038,-0.68184 0.032375,-1.3990791 0.09961,-2.107423 C 9.3378292,7.996766 9.5353848,6.8838204 9.856456,6.030127 10.016992,5.6032793 10.207941,5.2397126 10.44923,4.9666502 c 0.241288,-0.2730625 0.548659,-0.4573434 0.898437,-0.4707034 0.340279,-0.012997 0.654193,0.1226733 0.91504,0.3466799 0.260848,0.2240064 0.478739,0.533576 0.671875,0.9023442 0.386272,0.7375363 0.673638,1.7185093 0.900391,2.7607433 0.453508,2.0844678 0.653678,4.4189448 0.759766,5.4160188 0.05533,0.520083 0.05156,1.01362 0.08789,1.430665 0.03633,0.417044 0.114233,0.745051 0.288086,0.966797 0.173853,0.221743 0.455143,0.379585 1.017578,0.421875 0.562438,0.04229 1.389101,-0.04574 2.560549,-0.318359 1.020831,-0.237573 1.807138,-0.671057 2.47461,-0.657227 0.333736,0.0069 0.658025,0.199516 0.809571,0.55957 0.09822,0.233347 0.145587,0.535283 0.15918,0.916016 0.02041,-0.637168 -0.02181,-1.089654 -0.15918,-1.416016 -0.151546,-0.360054 -0.475835,-0.552655 -0.809571,-0.559571 -0.667472,-0.01383 -1.453779,0.419655 -2.47461,0.657227 -1.171448,0.272626 -1.998111,0.360648 -2.560549,0.31836 C 15.425859,16.19878 15.144569,16.040938 14.970716,15.819195 14.796863,15.597449 14.718961,15.269442 14.68263,14.852397 14.6463,14.435353 14.650071,13.941815 14.594739,13.421733 14.488651,12.424659 14.288481,10.090181 13.834973,8.005714 13.60822,6.96348 13.320854,5.982507 12.934582,5.2449706 12.741446,4.8762022 12.523555,4.5666331 12.262707,4.3426265 12.00186,4.1186199 11.687946,3.9829491 11.347667,3.9959466 Z M 10.001964,15.980327 C 9.971614,16.105557 9.9197,16.22241 9.8242294,16.32603 9.5929448,16.577059 9.0824441,16.802182 8.1015721,16.854351 7.1207006,16.906521 5.687504,16.788971 3.6552809,16.413922 c -0.327325,-0.06041 -0.6003436,-0.06533 -0.837891,0.0127 -0.2375474,0.07802 -0.4239997,0.251541 -0.5371096,0.470703 -0.22622,0.438325 -0.2459163,1.040864 -0.2792971,1.874024 -0.00276,0.06904 0.00153,0.137283 0.012695,0.204102 0.029333,-0.677362 0.069085,-1.195416 0.2666017,-1.578126 0.1131099,-0.219162 0.2995623,-0.39268 0.5371096,-0.470703 0.2375474,-0.07803 0.5105661,-0.0731 0.8378911,-0.0127 2.0322229,0.375053 3.4654195,0.492599 4.446291,0.440429 0.980872,-0.05217 1.4913727,-0.277292 1.7226573,-0.52832 0.2092801,-0.227145 0.2397161,-0.506768 0.1777351,-0.845704 z"
       style="color:#000000;display:inline;overflow:visible;visibility:visible;opacity:0.2;fill:#ffffff;fill-opacity:1;fill-rule:nonzero;stroke:none;stroke-width:0.99999994;stroke-linecap:butt;stroke-linejoin:miter;stroke-miterlimit:4;stroke-dasharray:none;stroke-dashoffset:0;stroke-opacity:1;marker:none;enable-background:accumulate"
       inkscape:connector-curvature="0" />
    <path
       style="fill:#ffffff;fill-opacity:1;stroke:none;stroke-width:0.99999976;stroke-miterlimit:4;stroke-dasharray:none;stroke-opacity:1"
       id="path2892-3"
       d="M 11.490584,11.096278 A 2.2427266,4.0015282 3.1087108 1 1 7.0095059,10.895166 2.2427266,4.0015282 3.1087108 1 1 11.490584,11.096278 Z"
       inkscape:connector-curvature="0" />
    <path
       style="display:inline;overflow:visible;visibility:visible;fill:#4d4d4d;fill-opacity:1;fill-rule:nonzero;stroke:none;stroke-width:1;marker:none"
       id="path7470-3"
       d="m 10.995272,12.024402 a 0.96344861,1.0352156 44.98091 0 1 -1.9907396,-0.04797 0.96344861,1.0352156 44.98091 0 1 1.9907396,0.04797 z"
       inkscape:connector-curvature="0" />
    <path
       style="fill:#ffffff;fill-opacity:1;stroke:none;stroke-width:0.99999994;stroke-miterlimit:4;stroke-dasharray:none;stroke-opacity:1"
       id="path8367-1"
       d="m 16.954844,10.783096 a 4.0233545,2.4620904 82.181515 0 1 -4.909982,0.422518 4.0233545,2.4620904 82.181515 0 1 4.909982,-0.422518 z"
       inkscape:connector-curvature="0" />
    <path
       style="display:inline;overflow:visible;visibility:visible;fill:#4d4d4d;fill-opacity:1;fill-rule:nonzero;stroke:none;stroke-width:1;marker:none"
       id="path8369-4"
       d="M 14.96503,12.066996 A 0.89638798,1.0937843 44.990916 1 1 13.035238,11.93151 0.89638798,1.0937843 44.990916 0 1 14.96503,12.066996 Z"
       inkscape:connector-curvature="0" />
    <path
       id="path4437"
       d="m 11.620128,3.0057118 c -0.207044,0.00335 -0.416616,0.016789 -0.626953,0.040039 C 7.7562639,3.4035585 5.3892633,6.0325335 5.5185629,9.0018085 5.6585384,6.2425071 7.9391785,3.8833394 10.993175,3.545751 11.203512,3.5225 11.413084,3.509057 11.620128,3.505712 c 3.033248,-0.048979 5.645451,1.9960133 6.06641,4.8095726 l 0.797852,-0.087891 0.386719,3.4990244 0.05469,-0.0059 -0.441406,-3.9931652 -0.797852,0.087891 C 17.265579,5.001725 14.653376,2.9567324 11.620128,3.0057118 Z m 5.114261,4.9150411 -0.734376,0.081055 0.05469,0.4941407 0.78418,-0.086914 C 16.813131,8.2428981 16.777403,8.080171 16.734389,7.9207529 Z M 7.3232512,8.9666519 6.3701258,9.072121 c -0.0012,-0.017375 4e-6,-0.034405 -0.001,-0.051758 -0.00967,0.182222 -0.01163,0.3660661 0.001,0.5517582 L 7.3232512,9.4666522 7.7099704,12.966654 7.764658,12.960794 7.3232512,8.9666509 Z M 5.5107504,9.1668475 4.750008,9.2518086 4.8046955,9.7459493 5.5214929,9.6658713 C 5.5090029,9.4983882 5.5075379,9.3320601 5.5107479,9.1668475 Z"
       style="color:#000000;display:inline;overflow:visible;visibility:visible;opacity:0.2;fill:#ffffff;fill-opacity:1;fill-rule:nonzero;stroke:none;stroke-width:1;marker:none;enable-background:accumulate"
       inkscape:connector-curvature="0" />
  </g>
</svg>
